shader programmable_rgb(
	int r = 0,
	int g = 0,
	int b = 0,
	int n = 1,
	output color resultRGB = color(0)
)
{
	resultRGB = color((1.0 * r)/(pow(2.0, n) - 1),(1.0 * g)/(pow(2.0, n) - 1),(1.0 * b)/(pow(2.0, n) - 1));
}